X:232
T:Grande Chaine, La
D:Boys of the Lough, can't remember which
Z:Nigel Gatherer
M:4/4
L:1/8
K:G
D2|B3 c BAGB|d2 d2 BGBd|cdcB AFAc|dedc BGGA|
B3 c BAGB|d2 d2 BGBd|cdcB AFDF|G3 G G2:|
z2|gagf efge|d2 d2 BGBd|cdcB AFAc|dedc BG G2|
gagf efge|d2 d2 BGBd|cdcB AFDF|G3 G G2:|
<end>
<start>
